src/renderer/src/assets/electron.svg

<svg viewBox="0 0 128 128" fill="none" xmlns="http://www.w3.org/2000/svg">
  <circle cx="64" cy="64" r="64" fill="#2F3242"/>
  <ellipse cx="63.9835" cy="23.2036" rx="4.48794" ry="4.495" stroke="#A2ECFB" stroke-width="3.6" stroke-linecap="round"/>
  <path d="M51.3954 39.5028C52.3733 39.6812 53.3108 39.033 53.4892 38.055C53.6676 37.0771 53.0194 36.1396 52.0414 35.9612L51.3954 39.5028ZM28.6153 43.5751L30.1748 44.4741L30.1748 44.4741L28.6153 43.5751ZM28.9393 60.9358C29.4332 61.7985 30.5329 62.0976 31.3957 61.6037C32.2585 61.1098 32.5575 60.0101 32.0636 59.1473L28.9393 60.9358ZM37.6935 66.7457C37.025 66.01 35.8866 65.9554 35.1508 66.6239C34.415 67.2924 34.3605 68.4308 35.029 69.1666L37.6935 66.7457ZM53.7489 81.7014L52.8478 83.2597L53.7489 81.7014ZM96.9206 89.515C97.7416 88.9544 97.9526 87.8344 97.3919 87.0135C96.8313 86.1925 95.7113 85.9815 94.8904 86.5422L96.9206 89.515ZM52.0414 35.9612C46.4712 34.9451 41.2848 34.8966 36.9738 35.9376C32.6548 36.9806 29.0841 39.1576 27.0559 42.6762L30.1748 44.4741C31.5693 42.0549 34.1448 40.3243 37.8188 39.4371C41.5009 38.5479 46.1547 38.5468 51.3954 39.5028L52.0414 35.9612ZM27.0559 42.6762C24.043 47.9029 25.2781 54.5399 28.9393 60.9358L32.0636 59.1473C28.6579 53.1977 28.1088 48.0581 30.1748 44.4741L27.0559 42.6762ZM35.029 69.1666C39.6385 74.24 45.7158 79.1355 52.8478 83.2597L54.6499 80.1432C47.8081 76.1868 42.0298 71.5185 37.6935 66.7457L35.029 69.1666ZM52.8478 83.2597C61.344 88.1726 70.0465 91.2445 77.7351 92.3608C85.359 93.4677 92.2744 92.6881 96.9206 89.515L94.8904 86.5422C91.3255 88.9767 85.4902 89.849 78.2524 88.7982C71.0793 87.7567 62.809 84.8612 54.6499 80.1432L52.8478 83.2597ZM105.359 84.9077C105.359 81.4337 102.546 78.6127 99.071 78.6127V82.2127C100.553 82.2127 101.759 83.4166 101.759 84.9077H105.359ZM99.071 78.6127C95.5956 78.6127 92.7831 81.4337 92.7831 84.9077H96.3831C96.3831 83.4166 97.5892 82.2127 99.071 82.2127V78.6127ZM92.7831 84.9077C92.7831 88.3817 95.5956 91.2027 99.071 91.2027V87.6027C97.5892 87.6027 96.3831 86.3988 96.3831 84.9077H92.7831ZM99.071 91.2027C102.546 91.2027 105.359 88.3817 105.359 84.9077H101.759C101.759 86.3988 100.553 87.6027 99.071 87.6027V91.2027Z" fill="#A2ECFB"/>
  <path d="M91.4873 65.382C90.8456 66.1412 90.9409 67.2769 91.7002 67.9186C92.4594 68.5603 93.5951 68.465 94.2368 67.7058L91.4873 65.382ZM99.3169 43.6354L97.7574 44.5344L99.3169 43.6354ZM84.507 35.2412C83.513 35.2282 82.6967 36.0236 82.6838 37.0176C82.6708 38.0116 83.4661 38.8279 84.4602 38.8409L84.507 35.2412ZM74.9407 39.8801C75.9127 39.6716 76.5315 38.7145 76.323 37.7425C76.1144 36.7706 75.1573 36.1517 74.1854 36.3603L74.9407 39.8801ZM53.7836 46.3728L54.6847 47.931L53.7836 46.3728ZM25.5491 80.9047C25.6932 81.8883 26.6074 82.5688 27.5911 82.4247C28.5747 82.2806 29.2552 81.3664 29.1111 80.3828L25.5491 80.9047ZM94.2368 67.7058C97.8838 63.3907 100.505 58.927 101.752 54.678C103.001 50.4213 102.9 46.2472 100.876 42.7365L97.7574 44.5344C99.1494 46.9491 99.3603 50.0419 98.2974 53.6644C97.2323 57.2945 94.9184 61.3223 91.4873 65.382L94.2368 67.7058ZM100.876 42.7365C97.9119 37.5938 91.7082 35.335 84.507 35.2412L84.4602 38.8409C91.1328 38.9278 95.7262 41.0106 97.7574 44.5344L100.876 42.7365ZM74.1854 36.3603C67.4362 37.8086 60.0878 40.648 52.8826 44.8146L54.6847 47.931C61.5972 43.9338 68.5948 41.2419 74.9407 39.8801L74.1854 36.3603ZM52.8826 44.8146C44.1366 49.872 36.9669 56.0954 32.1491 62.3927C27.3774 68.63 24.7148 75.2115 25.5491 80.9047L29.1111 80.3828C28.4839 76.1026 30.4747 70.5062 35.0084 64.5802C39.496 58.7143 46.2839 52.7889 54.6847 47.931L52.8826 44.8146Z" fill="#A2ECFB"/>
  <path d="M49.0825 87.2295C48.7478 86.2934 47.7176 85.8059 46.7816 86.1406C45.8455 86.4753 45.358 87.5055 45.6927 88.4416L49.0825 87.2295ZM78.5635 96.4256C79.075 95.5732 78.7988 94.4675 77.9464 93.9559C77.0941 93.4443 75.9884 93.7205 75.4768 94.5729L78.5635 96.4256ZM79.5703 85.1795C79.2738 86.1284 79.8027 87.1379 80.7516 87.4344C81.7004 87.7308 82.71 87.2019 83.0064 86.2531L79.5703 85.1795ZM84.3832 64.0673H82.5832H84.3832ZM69.156 22.5301C68.2477 22.1261 67.1838 22.535 66.7799 23.4433C66.3759 24.3517 66.7848 25.4155 67.6931 25.8194L69.156 22.5301ZM45.6927 88.4416C47.5994 93.7741 50.1496 98.2905 53.2032 101.505C56.2623 104.724 59.9279 106.731 63.9835 106.731V103.131C61.1984 103.131 58.4165 101.765 55.8131 99.0249C53.2042 96.279 50.8768 92.2477 49.0825 87.2295L45.6927 88.4416ZM63.9835 106.731C69.8694 106.731 74.8921 102.542 78.5635 96.4256L75.4768 94.5729C72.0781 100.235 68.0122 103.131 63.9835 103.131V106.731ZM83.0064 86.2531C85.0269 79.7864 86.1832 72.1831 86.1832 64.0673H82.5832C82.5832 71.8536 81.4723 79.0919 79.5703 85.1795L83.0064 86.2531ZM86.1832 64.0673C86.1832 54.1144 84.4439 44.922 81.4961 37.6502C78.5748 30.4436 74.3436 24.8371 69.156 22.5301L67.6931 25.8194C71.6364 27.5731 75.3846 32.1564 78.1598 39.0026C80.9086 45.7836 82.5832 54.507 82.5832 64.0673H86.1832Z" fill="#A2ECFB"/>
  <path fill-rule="evenodd" clip-rule="evenodd" d="M103.559 84.9077C103.559 82.4252 101.55 80.4127 99.071 80.4127C96.5924 80.4127 94.5831 82.4252 94.5831 84.9077C94.5831 87.3902 96.5924 89.4027 99.071 89.4027C101.55 89.4027 103.559 87.3902 103.559 84.9077V84.9077Z" stroke="#A2ECFB" stroke-width="3.6" stroke-linecap="round"/>
  <path fill-rule="evenodd" clip-rule="evenodd" d="M28.8143 89.4027C31.2929 89.4027 33.3023 87.3902 33.3023 84.9077C33.3023 82.4252 31.2929 80.4127 28.8143 80.4127C26.3357 80.4127 24.3264 82.4252 24.3264 84.9077C24.3264 87.3902 26.3357 89.4027 28.8143 89.4027V89.4027V89.4027Z" stroke="#A2ECFB" stroke-width="3.6" stroke-linecap="round"/>
  <path fill-rule="evenodd" clip-rule="evenodd" d="M64.8501 68.0857C62.6341 68.5652 60.451 67.1547 59.9713 64.9353C59.4934 62.7159 60.9007 60.5293 63.1167 60.0489C65.3326 59.5693 67.5157 60.9798 67.9954 63.1992C68.4742 65.4186 67.066 67.6052 64.8501 68.0857Z" fill="#A2ECFB"/>
</svg>

<svg xmlns="http://www.w3.org/2000/svg" fill="none" viewBox="0 0 128 128">
  <circle cx="64" cy="64" r="64" fill="#2f3242"/>
  <ellipse cx="63.983" cy="23.204" stroke="#a2ecfb" stroke-linecap="round" stroke-width="3.6" rx="4.488" ry="4.495"/>
  <path fill="#a2ecfb" d="M51.395 39.503a1.8 1.8 0 0 0 .646-3.542zm-22.78 4.072 1.56.9zm.324 17.36a1.8 1.8 0 0 0 3.125-1.788zm8.755 5.81a1.8 1.8 0 0 0-2.665 2.422zm16.055 14.956-.901 1.559zm43.172 7.814a1.8 1.8 0 1 0-2.03-2.973zM52.04 35.961c-5.57-1.016-10.756-1.064-15.067-.023-4.32 1.043-7.89 3.22-9.918 6.738l3.119 1.798c1.394-2.42 3.97-4.15 7.644-5.037 3.682-.89 8.336-.89 13.576.066zm-24.985 6.715c-3.013 5.227-1.778 11.864 1.883 18.26l3.125-1.789c-3.406-5.95-3.955-11.089-1.89-14.673zm7.973 26.49c4.61 5.074 10.687 9.97 17.819 14.094l1.802-3.117c-6.842-3.956-12.62-8.624-16.956-13.397zm17.82 14.094c8.496 4.913 17.198 7.984 24.887 9.1 7.624 1.108 14.54.328 19.186-2.845l-2.03-2.973c-3.565 2.435-9.4 3.307-16.639 2.256-7.173-1.041-15.443-3.937-23.602-8.655zm52.511 1.648a6.29 6.29 0 0 0-6.288-6.295v3.6a2.69 2.69 0 0 1 2.688 2.695zm-6.288-6.295a6.29 6.29 0 0 0-6.288 6.295h3.6a2.69 2.69 0 0 1 2.688-2.695zm-6.288 6.295a6.29 6.29 0 0 0 6.288 6.295v-3.6a2.69 2.69 0 0 1-2.688-2.695zm6.288 6.295a6.29 6.29 0 0 0 6.288-6.295h-3.6a2.69 2.69 0 0 1-2.688 2.695z"/>
  <path fill="#a2ecfb" d="M91.487 65.382a1.8 1.8 0 1 0 2.75 2.324zm7.83-21.747-1.56.9zm-14.81-8.394a1.8 1.8 0 1 0-.047 3.6zm-9.566 4.64a1.8 1.8 0 0 0-.756-3.52zm-21.157 6.492.9 1.558zM25.549 80.905a1.8 1.8 0 0 0 3.562-.522zm68.688-13.2c3.647-4.314 6.268-8.778 7.515-13.027 1.249-4.257 1.148-8.43-.876-11.941l-3.119 1.797c1.392 2.415 1.603 5.508.54 9.13-1.065 3.63-3.379 7.658-6.81 11.718zm6.639-24.968c-2.964-5.143-9.168-7.402-16.369-7.496l-.047 3.6c6.673.087 11.266 2.17 13.297 5.693zm-26.69-6.377c-6.75 1.449-14.098 4.288-21.303 8.455l1.802 3.116c6.912-3.997 13.91-6.69 20.256-8.05zm-21.303 8.455c-8.746 5.057-15.916 11.28-20.734 17.578-4.772 6.237-7.434 12.819-6.6 18.512l3.562-.522c-.627-4.28 1.364-9.877 5.897-15.803 4.488-5.866 11.276-11.791 19.677-16.649z"/>
  <path fill="#a2ecfb" d="M49.083 87.23a1.8 1.8 0 1 0-3.39 1.212zm29.48 9.196a1.8 1.8 0 0 0-3.086-1.853zM79.57 85.18a1.8 1.8 0 1 0 3.436 1.073zm4.813-21.113h-1.8zM69.156 22.53a1.8 1.8 0 1 0-1.463 3.29zM45.693 88.442c1.906 5.332 4.457 9.849 7.51 13.063 3.06 3.219 6.725 5.226 10.78 5.226v-3.6c-2.785 0-5.566-1.366-8.17-4.106-2.609-2.746-4.936-6.777-6.73-11.796zm18.29 18.289c5.886 0 10.91-4.189 14.58-10.305l-3.086-1.853c-3.399 5.662-7.465 8.558-11.494 8.558zm19.023-20.478c2.02-6.467 3.177-14.07 3.177-22.186h-3.6c0 7.787-1.11 15.025-3.013 21.113zm3.177-22.186c0-9.953-1.74-19.145-4.687-26.417-2.921-7.206-7.152-12.813-12.34-15.12l-1.463 3.29c3.943 1.753 7.692 6.336 10.467 13.183 2.749 6.78 4.423 15.504 4.423 25.064z"/>
  <path stroke="#a2ecfb" stroke-linecap="round" stroke-width="3.6" d="M103.559 84.908a4.49 4.49 0 0 0-4.488-4.495 4.49 4.49 0 0 0-4.488 4.495 4.49 4.49 0 0 0 4.488 4.495 4.49 4.49 0 0 0 4.488-4.495zm-74.745 4.495a4.49 4.49 0 0 0 4.488-4.495 4.49 4.49 0 0 0-4.488-4.495 4.49 4.49 0 0 0-4.488 4.495 4.49 4.49 0 0 0 4.488 4.495z" clip-rule="evenodd"/>
  <path fill="#a2ecfb" fill-rule="evenodd" d="M64.85 68.086a4.112 4.112 0 0 1-1.733-8.037 4.105 4.105 0 0 1 4.878 3.15 4.11 4.11 0 0 1-3.145 4.887" clip-rule="evenodd"/>
</svg>
